X: 1
T: Sl\"angpolska efter Johann Olsson
O: Leif Alpsj\"o
R: bond-polska
Z: John Chambers &lt;jc@trillian.mit.edu&gt;
M: 3/4
L: 1/8
K: C
F \
|: "C"E2 CE G&gt;c \
| e2 cd B&gt;d \
|1,3 "Dm"f&gt;e dc B&gt;A \
| "G7"A&lt;G G2 F&gt;F \
:|2,4 "Dm"fe/f/ ag "G7"f&gt;c \
| BA/B/ "C"c4 :|
|: "C"g2 ge c&gt;e \
| "G7"d&gt;c Bc d&gt;e \
| f2 fG B&gt;d \
| "C"c&gt;B cd e&gt;f \
| "C"g2 ge c&gt;f \
| "Dm"a2 af d&gt;g |
| "G7"b2 ba g&gt;f \
| "C"e&gt;a ge c&gt;e \
| "C"g2 ge c&gt;f \
| "Dm"a2 af d&gt;g \
| "G7"b2 ba g&gt;B \
| "C"c2 c4 :|

